libs/ui/packages/crypto-icons/src/svg/AMPL.svg

<svg width="24" height="24" viewBox="0 0 24 24" fill="none">
<path d="M5.63322 18.375C5.6227 18.1979 5.6222 18.0204 5.63172 17.8433C5.69172 17.8253 5.75322 17.8132 5.81622 17.8057C5.99772 17.775 6.17697 17.733 6.35397 17.6805C6.40197 17.6655 6.44997 17.649 6.49647 17.631C6.72897 17.5417 6.93447 17.3947 7.09047 17.2042C7.19847 17.0715 7.29297 16.9282 7.37397 16.7767C7.48797 16.5697 7.58922 16.356 7.67847 16.137C7.85922 15.696 8.03922 15.2535 8.21847 14.8102L10.0627 10.2405C10.6455 8.79225 11.2177 7.34025 11.778 5.88375C11.7892 5.85375 11.802 5.82525 11.8147 5.79525C12.0217 5.73825 12.2257 5.67975 12.4372 5.625C12.4492 5.655 12.4612 5.6805 12.471 5.7075L13.1835 7.65825C13.9904 9.87594 14.8086 12.0895 15.6382 14.2987C15.8662 14.9025 16.0957 15.5062 16.3275 16.1077C16.419 16.3537 16.5262 16.5938 16.6492 16.8263C16.7033 16.9256 16.7619 17.0224 16.8247 17.1165C17.0175 17.4105 17.3167 17.6228 17.6625 17.7098C17.8485 17.7585 18.0375 17.7952 18.228 17.82L18.3637 17.8395C18.3832 17.8987 18.3712 17.9558 18.3727 18.012C18.375 18.069 18.3727 18.132 18.3727 18.1927C18.375 18.2513 18.3735 18.309 18.3697 18.3675C18.3502 18.3705 18.3352 18.3735 18.3202 18.375H13.548C13.543 18.3648 13.5394 18.3539 13.5375 18.3428V17.8635C13.5387 17.8563 13.5407 17.8493 13.5435 17.8425C13.583 17.8316 13.6234 17.824 13.6642 17.82C13.8607 17.7952 14.0542 17.7577 14.2462 17.709C14.3227 17.688 14.3985 17.661 14.4735 17.634C14.511 17.619 14.547 17.6017 14.5815 17.5815C14.7697 17.478 14.8455 17.316 14.829 17.109C14.8206 17.0152 14.8038 16.9223 14.7787 16.8315C14.7412 16.689 14.6887 16.5518 14.6392 16.4137C13.6507 13.7126 12.673 11.0076 11.706 8.29875C11.6955 8.26875 11.6925 8.2365 11.6617 8.21025C11.652 8.21625 11.6392 8.22075 11.6317 8.229C11.6239 8.24267 11.6178 8.25729 11.6137 8.2725C11.1412 9.6045 10.638 10.926 10.1362 12.2475C9.76647 13.227 9.39597 14.205 9.05097 15.1927C8.91325 15.5889 8.7795 15.9864 8.64972 16.3853C8.59888 16.5375 8.56124 16.6938 8.53722 16.8525C8.51885 16.9583 8.51582 17.0661 8.52822 17.1727C8.53636 17.2422 8.55899 17.3093 8.59465 17.3695C8.63031 17.4297 8.67819 17.4817 8.73522 17.5223C8.81172 17.5755 8.89572 17.6183 8.98422 17.6475C9.12522 17.6963 9.27072 17.733 9.41847 17.757C9.58122 17.7863 9.74547 17.8087 9.90897 17.8342L9.94422 17.8403C9.94815 17.8519 9.95067 17.864 9.95172 17.8762V18.3397C9.95059 18.3489 9.94858 18.358 9.94572 18.3668C9.93111 18.37 9.91634 18.3725 9.90147 18.3743H5.63322V18.375Z" fill="black"/>
</svg>

<svg width="24" height="24" viewBox="0 0 24 24" fill="none"><path fill="#000" d="M5.633 18.375a5 5 0 0 1-.001-.532q.09-.027.184-.037.273-.047.538-.126.073-.021.142-.049a1.43 1.43 0 0 0 .594-.427q.162-.2.284-.427.17-.311.304-.64.271-.661.54-1.327l1.845-4.57a305 305 0 0 0 1.715-4.356q.017-.045.037-.089c.207-.057.41-.115.622-.17l.034.082.713 1.951a689 689 0 0 0 2.454 6.64q.342.907.69 1.81.136.37.321.718.081.15.176.29c.192.294.492.507.838.594q.28.073.565.11l.136.02c.02.059.007.116.009.172.002.057 0 .12 0 .18q.002.089-.003.175l-.05.008h-4.772a.1.1 0 0 1-.01-.032v-.48l.005-.02q.06-.017.121-.023.295-.038.582-.111.115-.033.227-.075a1 1 0 0 0 .108-.053c.189-.103.264-.265.248-.472a1.6 1.6 0 0 0-.05-.278c-.038-.142-.09-.28-.14-.417q-1.482-4.051-2.933-8.115c-.01-.03-.013-.062-.044-.089-.01.006-.023.01-.03.019a.2.2 0 0 0-.018.044c-.473 1.332-.976 2.653-1.478 3.975-.37.979-.74 1.957-1.085 2.945q-.207.594-.401 1.192-.077.229-.113.467a1.1 1.1 0 0 0-.009.32.5.5 0 0 0 .207.35 1 1 0 0 0 .25.126q.211.072.433.109c.163.03.327.052.491.077l.035.006.008.036v.464l-.006.027-.045.007z"/></svg>
